chess-ui/src/assets/images/pieces/merida/bR.svg

<svg xmlns="http://www.w3.org/2000/svg" width="177.17" height="177.17" shape-rendering="geometricPrecision" image-rendering="optimizeQuality" fill-rule="evenodd" clip-rule="evenodd" viewBox="0 0 50 50"><defs><linearGradient id="0" x1="21.19" y1="37.552" x2="77.74" y2="37.429" gradientUnits="userSpaceOnUse"><stop stop-color="#fff"/><stop offset="1" stop-color="#fff" stop-opacity="0"/></linearGradient></defs><path fill="#1f1a17" d="m28.408 9.22h4.216v-3.395h6.796v9.295l-5.5 4.243v11.857l4.22 4.221v5.08h3.789v5.929h-33.859v-5.929h3.794v-5.08l4.246-4.221v-11.857l-5.508-4.243v-9.295h6.774v3.395h4.242v-3.395h6.79z"/><path fill="url(#0)" d="m25.01 35.04h-10.27l-1.143 1.067v1.439h22.826v-1.439l-1.143-1.067h-10.27m-11.413 5.08v2.532h22.826v-2.532h-22.826m11.413-27.08h-12.7v1.143l1.812 1.363h21.802l1.761-1.363v-1.143h-12.675m0 4.191h-8.678l1.482 1.168v1.414h14.393v-1.414l1.482-1.168h-8.678m0 13.547h-7.197v1.143l-1.482 1.439h17.357l-1.482-1.439v-1.143h-7.197"/></svg>

<svg xmlns="http://www.w3.org/2000/svg" width="177.17" height="177.17" shape-rendering="geometricPrecision" image-rendering="optimizeQuality" fill-rule="evenodd" clip-rule="evenodd" viewBox="0 0 50 50"><defs><linearGradient id="a" x1="21.19" y1="37.552" x2="77.74" y2="37.429" gradientUnits="userSpaceOnUse"><stop stop-color="#fff"/><stop offset="1" stop-color="#fff" stop-opacity="0"/></linearGradient></defs><path fill="#1f1a17" d="M28.408 9.22h4.216V5.825h6.796v9.295l-5.5 4.243V31.22l4.22 4.221v5.08h3.789v5.929H8.07v-5.929h3.794v-5.08l4.246-4.221V19.363l-5.508-4.243V5.825h6.774V9.22h4.242V5.825h6.79z"/><path fill="url(#a)" d="M25.01 35.04H14.74l-1.143 1.067v1.439h22.826v-1.439L35.28 35.04H25.01m-11.413 5.08v2.532h22.826V40.12H13.597M25.01 13.04h-12.7v1.143l1.812 1.363h21.802l1.761-1.363V13.04H25.01m0 4.191h-8.678l1.482 1.168v1.414h14.393v-1.414l1.482-1.168h-8.678m0 13.547h-7.197v1.143l-1.482 1.439h17.357l-1.482-1.439v-1.143H25.01"/></svg>
